X: 3245
T: The GREEN JERSEYS
%R: jig
B: James Kerr "Merry Melodies" v.3 p.27 #245
Z: 2016 John Chambers <jc:trillian.mit.edu>
M: 6/8
L: 1/8
K: D
uA |\
ded AFA | B2A A2A | ded AFA | f2e e2f |\
ded AFA | BGB A2g | fef dBA | B2d d2 :|
|: f |\
aba fdf | aba fdf | geg fdf | ecA ABc |\
ded AFA | BGB A2g | fef dBA | B2d d2 :|

%%sep 1 1 500
%%sep 1 1 500

